icons/fast-forward.svg

<?xml version="1.0" standalone="no"?><!-- Generator: Gravit.io --><svg xmlns="http://www.w3.org/2000/svg" xmlns:xlink="http://www.w3.org/1999/xlink" width="96" height="96"><path d=" M 44.05627924084866 53.519615242270675 L 29.05627924084866 62.21961524227066 L 13.45627924084866 71.21961524227066 L 11.45627924084866 71.81961524227067 C 10.95627924084866 72.01961524227067 10.356279240848659 72.01961524227067 9.756279240848658 72.01961524227067 C 8.25627924084866 71.81961524227067 6.756279240848659 71.01961524227067 5.756279240848659 69.71961524227066 C 4.756279240848659 68.51961524227067 4.256279240848659 66.91961524227067 4.356279240848659 65.31961524227067 L 4.356279240848659 48.01961524227067 L 4.356279240848659 30.61961524227067 C 4.256279240848659 29.019615242270667 4.756279240848659 27.519615242270667 5.756279240848659 26.21961524227067 C 6.756279240848659 25.019615242270667 8.25627924084866 24.21961524227067 9.756279240848658 24.019615242270667 C 10.356279240848659 23.919615242270666 10.95627924084866 24.019615242270667 11.45627924084866 24.21961524227067 L 13.45627924084866 24.819615242270668 L 29.05627924084866 33.81961524227067 L 44.05627924084866 42.419615242270666 C 46.156279240848654 43.51961524227067 47.55627924084866 45.61961524227067 47.656279240848654 48.01961524227067 C 47.55627924084866 50.31961524227067 46.156279240848654 52.519615242270675 44.05627924084866 53.519615242270675 Z  M 12.356279240848659 33.419615242270666 L 25.05627924084866 40.71961524227066 L 37.656279240848654 48.01961524227067 L 25.05627924084866 55.31961524227067 L 12.356279240848659 62.61961524227067 L 12.356279240848659 48.01961524227067 L 12.356279240848659 33.419615242270666 Z  M 92.05627924084865 53.51961524227067 L 77.05627924084865 62.21961524227066 L 61.45627924084866 71.21961524227066 L 59.45627924084866 71.81961524227066 C 58.95627924084866 72.01961524227067 58.35627924084866 72.01961524227067 57.756279240848656 72.01961524227067 C 56.256279240848656 71.81961524227066 54.756279240848656 71.01961524227067 53.756279240848656 69.71961524227066 C 52.756279240848656 68.51961524227067 52.256279240848656 66.91961524227067 52.35627924084866 65.31961524227066 L 52.35627924084866 48.01961524227066 L 52.35627924084866 30.619615242270665 C 52.256279240848656 29.019615242270664 52.756279240848656 27.519615242270664 53.756279240848656 26.219615242270663 C 54.756279240848656 25.019615242270664 56.256279240848656 24.219615242270663 57.756279240848656 24.019615242270664 C 58.35627924084866 23.919615242270666 58.95627924084866 24.019615242270664 59.45627924084866 24.219615242270663 L 61.45627924084866 24.819615242270665 L 77.05627924084865 33.819615242270665 L 92.05627924084865 42.419615242270666 C 94.15627924084865 43.51961524227066 95.55627924084865 45.61961524227067 95.65627924084865 48.01961524227066 C 95.55627924084865 50.319615242270665 94.15627924084865 52.51961524227067 92.05627924084865 53.51961524227067 Z  M 60.35627924084866 33.419615242270666 L 73.05627924084865 40.71961524227066 L 85.65627924084865 48.01961524227066 L 73.05627924084865 55.319615242270665 L 60.35627924084866 62.61961524227066 L 60.35627924084866 48.01961524227066 L 60.35627924084866 33.419615242270666 Z " fill-rule="evenodd" fill="#454545" stroke="none"/><mask id="_mask_DzzvtL08sVyZtJi7M6ADiyC6ecfXDohw"><path d=" M 44.05627924084866 53.519615242270675 L 29.05627924084866 62.21961524227066 L 13.45627924084866 71.21961524227066 L 11.45627924084866 71.81961524227067 C 10.95627924084866 72.01961524227067 10.356279240848659 72.01961524227067 9.756279240848658 72.01961524227067 C 8.25627924084866 71.81961524227067 6.756279240848659 71.01961524227067 5.756279240848659 69.71961524227066 C 4.756279240848659 68.51961524227067 4.256279240848659 66.91961524227067 4.356279240848659 65.31961524227067 L 4.356279240848659 48.01961524227067 L 4.356279240848659 30.61961524227067 C 4.256279240848659 29.019615242270667 4.756279240848659 27.519615242270667 5.756279240848659 26.21961524227067 C 6.756279240848659 25.019615242270667 8.25627924084866 24.21961524227067 9.756279240848658 24.019615242270667 C 10.356279240848659 23.919615242270666 10.95627924084866 24.019615242270667 11.45627924084866 24.21961524227067 L 13.45627924084866 24.819615242270668 L 29.05627924084866 33.81961524227067 L 44.05627924084866 42.419615242270666 C 46.156279240848654 43.51961524227067 47.55627924084866 45.61961524227067 47.656279240848654 48.01961524227067 C 47.55627924084866 50.31961524227067 46.156279240848654 52.519615242270675 44.05627924084866 53.519615242270675 Z  M 12.356279240848659 33.419615242270666 L 25.05627924084866 40.71961524227066 L 37.656279240848654 48.01961524227067 L 25.05627924084866 55.31961524227067 L 12.356279240848659 62.61961524227067 L 12.356279240848659 48.01961524227067 L 12.356279240848659 33.419615242270666 Z  M 92.05627924084865 53.51961524227067 L 77.05627924084865 62.21961524227066 L 61.45627924084866 71.21961524227066 L 59.45627924084866 71.81961524227066 C 58.95627924084866 72.01961524227067 58.35627924084866 72.01961524227067 57.756279240848656 72.01961524227067 C 56.256279240848656 71.81961524227066 54.756279240848656 71.01961524227067 53.756279240848656 69.71961524227066 C 52.756279240848656 68.51961524227067 52.256279240848656 66.91961524227067 52.35627924084866 65.31961524227066 L 52.35627924084866 48.01961524227066 L 52.35627924084866 30.619615242270665 C 52.256279240848656 29.019615242270664 52.756279240848656 27.519615242270664 53.756279240848656 26.219615242270663 C 54.756279240848656 25.019615242270664 56.256279240848656 24.219615242270663 57.756279240848656 24.019615242270664 C 58.35627924084866 23.919615242270666 58.95627924084866 24.019615242270664 59.45627924084866 24.219615242270663 L 61.45627924084866 24.819615242270665 L 77.05627924084865 33.819615242270665 L 92.05627924084865 42.419615242270666 C 94.15627924084865 43.51961524227066 95.55627924084865 45.61961524227067 95.65627924084865 48.01961524227066 C 95.55627924084865 50.319615242270665 94.15627924084865 52.51961524227067 92.05627924084865 53.51961524227067 Z  M 60.35627924084866 33.419615242270666 L 73.05627924084865 40.71961524227066 L 85.65627924084865 48.01961524227066 L 73.05627924084865 55.319615242270665 L 60.35627924084866 62.61961524227066 L 60.35627924084866 48.01961524227066 L 60.35627924084866 33.419615242270666 Z " fill-rule="evenodd" fill="white" stroke="none"/></mask><path d=" M 44.05627924084866 53.519615242270675 L 29.05627924084866 62.21961524227066 L 13.45627924084866 71.21961524227066 L 11.45627924084866 71.81961524227067 C 10.95627924084866 72.01961524227067 10.356279240848659 72.01961524227067 9.756279240848658 72.01961524227067 C 8.25627924084866 71.81961524227067 6.756279240848659 71.01961524227067 5.756279240848659 69.71961524227066 C 4.756279240848659 68.51961524227067 4.256279240848659 66.91961524227067 4.356279240848659 65.31961524227067 L 4.356279240848659 48.01961524227067 L 4.356279240848659 30.61961524227067 C 4.256279240848659 29.019615242270667 4.756279240848659 27.519615242270667 5.756279240848659 26.21961524227067 C 6.756279240848659 25.019615242270667 8.25627924084866 24.21961524227067 9.756279240848658 24.019615242270667 C 10.356279240848659 23.919615242270666 10.95627924084866 24.019615242270667 11.45627924084866 24.21961524227067 L 13.45627924084866 24.819615242270668 L 29.05627924084866 33.81961524227067 L 44.05627924084866 42.419615242270666 C 46.156279240848654 43.51961524227067 47.55627924084866 45.61961524227067 47.656279240848654 48.01961524227067 C 47.55627924084866 50.31961524227067 46.156279240848654 52.519615242270675 44.05627924084866 53.519615242270675 Z  M 12.356279240848659 33.419615242270666 L 25.05627924084866 40.71961524227066 L 37.656279240848654 48.01961524227067 L 25.05627924084866 55.31961524227067 L 12.356279240848659 62.61961524227067 L 12.356279240848659 48.01961524227067 L 12.356279240848659 33.419615242270666 Z  M 92.05627924084865 53.51961524227067 L 77.05627924084865 62.21961524227066 L 61.45627924084866 71.21961524227066 L 59.45627924084866 71.81961524227066 C 58.95627924084866 72.01961524227067 58.35627924084866 72.01961524227067 57.756279240848656 72.01961524227067 C 56.256279240848656 71.81961524227066 54.756279240848656 71.01961524227067 53.756279240848656 69.71961524227066 C 52.756279240848656 68.51961524227067 52.256279240848656 66.91961524227067 52.35627924084866 65.31961524227066 L 52.35627924084866 48.01961524227066 L 52.35627924084866 30.619615242270665 C 52.256279240848656 29.019615242270664 52.756279240848656 27.519615242270664 53.756279240848656 26.219615242270663 C 54.756279240848656 25.019615242270664 56.256279240848656 24.219615242270663 57.756279240848656 24.019615242270664 C 58.35627924084866 23.919615242270666 58.95627924084866 24.019615242270664 59.45627924084866 24.219615242270663 L 61.45627924084866 24.819615242270665 L 77.05627924084865 33.819615242270665 L 92.05627924084865 42.419615242270666 C 94.15627924084865 43.51961524227066 95.55627924084865 45.61961524227067 95.65627924084865 48.01961524227066 C 95.55627924084865 50.319615242270665 94.15627924084865 52.51961524227067 92.05627924084865 53.51961524227067 Z  M 60.35627924084866 33.419615242270666 L 73.05627924084865 40.71961524227066 L 85.65627924084865 48.01961524227066 L 73.05627924084865 55.319615242270665 L 60.35627924084866 62.61961524227066 L 60.35627924084866 48.01961524227066 L 60.35627924084866 33.419615242270666 Z " fill-rule="evenodd" fill="none" stroke="none" stroke-width="16" mask="url(#_mask_DzzvtL08sVyZtJi7M6ADiyC6ecfXDohw)"/></svg>

<svg xmlns="http://www.w3.org/2000/svg" width="96" height="96"><path d="M44.056 53.52l-15 8.7-15.6 9-2 .6c-.5.2-1.1.2-1.7.2-1.5-.2-3-1-4-2.3-1-1.2-1.5-2.8-1.4-4.4v-34.7c-.1-1.6.4-3.1 1.4-4.4 1-1.2 2.5-2 4-2.2.6-.1 1.2 0 1.7.2l2 .6 15.6 9 15 8.6c2.1 1.1 3.5 3.2 3.6 5.6-.1 2.3-1.5 4.5-3.6 5.5zm-31.7-20.1l12.7 7.3 12.6 7.3-12.6 7.3-12.7 7.3v-29.2zm79.7 20.1l-15 8.7-15.6 9-2 .6c-.5.2-1.1.2-1.7.2-1.5-.2-3-1-4-2.3-1-1.2-1.5-2.8-1.4-4.4v-34.7c-.1-1.6.4-3.1 1.4-4.4 1-1.2 2.5-2 4-2.2.6-.1 1.2 0 1.7.2l2 .6 15.6 9 15 8.6c2.1 1.1 3.5 3.2 3.6 5.6-.1 2.3-1.5 4.5-3.6 5.5zm-31.7-20.1l12.7 7.3 12.6 7.3-12.6 7.3-12.7 7.3v-29.2z" fill-rule="evenodd" fill="#454545"/></svg>
